X: 201
T:Bohola Jig
R:Jig
Z:Alf warnock, alf0@rogers.com - www.alfwarnock.info/alfs
M:6/8
L:1/8
K:D
e|fef d2B|A2A ABd|efe edB|efe e2e|
fef d2B|A2A ABd|efe edB|ded d2:|
|:e|fef a2e|fef a2f|efe edB|efe e2e|
[1 fef a2e|fef a2f|efe edB|ded d2:|
[2 fef d2B|A2A ABd|efe edB|ded d2|]
